; generated by PrusaSlicer 2.5.0+win64 on 2022-10-11 at 01:18:35 UTC


;
;

;
;
; 

; external perimeters extrusion width = 0.45mm
; perimeters extrusion width = 0.45mm
; infill extrusion width = 0.45mm
; solid infill extrusion width = 0.45mm
; top infill extrusion width = 0.40mm
; first layer extrusion width = 0.42mm

; external perimeters extrusion width = 0.45mm
; perimeters extrusion width = 0.45mm
; infill extrusion width = 0.45mm
; solid infill extrusion width = 0.45mm
; top infill extrusion width = 0.40mm
; first layer extrusion width = 0.42mm

M73 P0 R17
M201 X2500 Y2500 Z400 E5000 ; sets maximum accelerations, mm/sec^2
M203 X180 Y180 Z12 E80 ; sets maximum feedrates, mm / sec
M204 P1250 R1250 T2500 ; sets acceleration (P, T) and retract acceleration (R), mm/sec^2
M205 X8.00 Y8.00 Z2.00 E10.00 ; sets the jerk limits, mm/sec
M205 S0 T0 ; sets the minimum extruding and travel feed rate, mm/sec
M107
;TYPE:Custom
M862.3 P "MINI" ; printer model check
G90 ; use absolute coordinates
M83 ; extruder relative mode
M104 S170 ; set extruder temp for bed leveling
M140 S60 ; set bed temp
M109 R170 ; wait for bed leveling temp
M190 S60 ; wait for bed temp
M204 T1250 ; set travel acceleration
G28 ; home all without mesh bed level
G29 ; mesh bed leveling 
M204 T2500 ; restore travel acceleration
M104 S215 ; set extruder temp
G92 E0
G1 Y-2 X179 F2400
G1 Z3 F720
M109 S215 ; wait for extruder temp

; intro line
G1 X170 F1000
G1 Z0.2 F720
G1 X110 E8 F900
G1 X40 E10 F700
G92 E0

M221 S95 ; set flow
G21 ; set units to millimeters
G90 ; use absolute coordinates
M83 ; use relative distances for extrusion
M900 K0.2 ; Filament gcode LA 1.5
; ; Filament gcode LA 1.0
M107
;LAYER_CHANGE
;Z:0.2
;HEIGHT:0.2
;BEFORE_LAYER_CHANGE
G92 E0.0
;0.2


G1 E-3.2 F4200
M73 P1 R17
G1 Z.2 F720
;AFTER_LAYER_CHANGE
;0.2
G1 Z.4
G1 X61.142 Y86.055 F9000
G1 Z.2 F720
G1 E3.2 F2400
M204 P800
;TYPE:Skirt/Brim
;WIDTH:0.42
G1 F1200
G1 X62.056 Y85.589 E.03218
G1 X62.873 Y85.438 E.02603
G1 X76.647 Y84.969 E.43212
G1 X96.339 Y87.729 E.62348
G1 X96.99 Y87.902 E.02113
G1 X98.261 Y88.881 E.05029
G1 X98.688 Y89.702 E.029
G1 X98.852 Y90.407 E.02269
G1 X98.875 Y91.836 E.04483
G1 X98.624 Y94.049 E.06982
G1 X98.022 Y95.391 E.04612
G1 X96.815 Y96.232 E.04612
G1 X95.991 Y96.386 E.02629
G1 X64.56 Y97.415 E.98604
G1 X63.13 Y97.069 E.04612
G1 X61.812 Y95.385 E.06706
G1 X60.112 Y88.94 E.20898
G1 X60.146 Y87.47 E.04612
G1 X61.107 Y86.104 E.05236
M204 P1000
M73 P2 R17
G1 X61.366 Y86.358 F9000
M204 P800
G1 F1200
G1 X62.162 Y85.951 E.02801
G1 X62.887 Y85.815 E.02312
G1 X76.594 Y85.342 E.43005
G1 X96.287 Y88.102 E.62348
G1 X96.857 Y88.255 E.01851
G1 X97.954 Y89.1 E.04341
G1 X98.367 Y89.934 E.02917
G1 X98.503 Y90.684 E.0239
G1 X98.518 Y91.411 E.02279
G1 X98.251 Y93.992 E.08136
G1 X97.667 Y95.225 E.04278
G1 X95.979 Y96.009 E.05837
G1 X64.547 Y97.038 E.98604
G1 X63.228 Y96.689 E.04278
G1 X62.176 Y95.286 E.05501
G1 X60.477 Y88.848 E.20876
G1 X60.538 Y87.485 E.04278
G1 X61.331 Y86.406 E.04198
M204 P1000
; printing object A.stl id:0 copy 0
G1 E-2.24 F4200
;WIPE_START
G1 F7200
G1 X62.162 Y85.951 E-.52504
G1 X62.848 Y85.822 E-.38696
;WIPE_END
G1 E-.048 F4200
G1 Z.4 F720
G1 X85.651 Y93.317 F9000
G1 Z.2 F720
G1 E3.2 F2400
M204 P800
;TYPE:External perimeter
;WIDTH:0.395282
G1 F1200
G1 X85.698 Y92.985 E.00982
G1 X85.854 Y92.965 E.00461
G1 X89.547 Y92.949 E.1082
;WIDTH:0.362895
G1 X90.502 Y92.943 E.02542
;WIDTH:0.363223
G1 X91.458 Y92.949 E.02544
;WIDTH:0.395279
G1 X95.136 Y92.965 E.10778
G1 X95.292 Y92.985 E.00461
;WIDTH:0.395282
G1 X95.339 Y93.317 E.00982
G1 X92.402 Y93.317 E.08604
G1 X91.44 Y93.268 E.02824
;WIDTH:0.362896
G1 X90.492 Y93.252 E.02523
;WIDTH:0.363223
G1 X89.544 Y93.269 E.02525
;WIDTH:0.395282
G1 X88.594 Y93.317 E.02786
G1 X85.711 Y93.317 E.08446
M204 P1000
G1 X85.844 Y93.043 F9000
; stop printing object A.stl id:0 copy 0
; printing object A.stl id:1 copy 0
G1 E-2.24 F4200
;WIPE_START
G1 F7200
G1 X85.698 Y92.985 E-.18399
G1 X85.854 Y92.965 E-.08722
G1 X87.01 Y92.96 E-.64079
;WIPE_END
G1 E-.048 F4200
G1 Z.4 F720
G1 X75.295 Y88.52 F9000
G1 Z.2 F720
M73 P2 R16
G1 E3.2 F2400
M204 P800
;TYPE:Perimeter
;WIDTH:0.419999
G1 F1200
G1 X74.273 Y93.441 E.15757
G1 X71.657 Y93.532 E.08208
G1 X70.789 Y93.507 E.02723
G1 X69.814 Y93.521 E.03058
G1 X68.842 Y93.58 E.03055
G1 X67.921 Y93.677 E.02902
G1 X65.387 Y93.771 E.07952
G1 X64.003 Y88.94 E.15757
G1 X75.235 Y88.522 E.35244
M204 P1000
G1 X75.762 Y88.125 F9000
M204 P800
;TYPE:External perimeter
G1 F1200
G1 X74.583 Y93.806 E.18193
G1 X71.646 Y93.909 E.09214
G1 X70.794 Y93.884 E.02671
G1 X69.837 Y93.898 E.03003
G1 X68.881 Y93.955 E.03002
G1 X67.948 Y94.053 E.02941
G1 X65.106 Y94.159 E.08917
G1 X63.508 Y88.581 E.18193
G1 X75.702 Y88.128 E.38263
M204 P1000
G1 X75.575 Y88.479 F9000
G1 X75.021 Y89.283
M204 P800
;TYPE:Solid infill
;WIDTH:0.429905
G1 F1200
G1 X74.569 Y88.83 E.02059
G1 X74.041 Y88.85 E.01699
G1 X74.784 Y89.592 E.03379
G1 X74.69 Y90.045 E.01489
G1 X73.514 Y88.869 E.05352
G1 X72.986 Y88.889 E.01699
G1 X74.596 Y90.499 E.07325
G1 X74.501 Y90.952 E.01489
G1 X72.458 Y88.909 E.09298
G1 X71.931 Y88.928 E.01699
M73 P3 R16
G1 X74.407 Y91.405 E.11271
G1 X74.313 Y91.858 E.01489
G1 X71.403 Y88.948 E.13244
G1 X70.875 Y88.967 E.01699
G1 X74.219 Y92.311 E.15217
G1 X74.125 Y92.764 E.01489
G1 X70.348 Y88.987 E.1719
G1 X69.82 Y89.007 E.01699
G1 X73.982 Y93.168 E.18939
G1 X73.454 Y93.188 E.01699
G1 X69.292 Y89.026 E.18939
G1 X68.764 Y89.046 E.01699
G1 X72.926 Y93.208 E.18939
G1 X72.399 Y93.227 E.01699
G1 X68.237 Y89.065 E.18939
G1 X67.709 Y89.085 E.01699
G1 X71.871 Y93.247 E.18939
G1 X71.738 Y93.252 E.00428
G1 X71.316 Y93.239 E.01358
G1 X67.181 Y89.105 E.18817
G1 X66.654 Y89.124 E.01699
G1 X70.754 Y93.224 E.18659
G1 X70.215 Y93.232 E.01736
G1 X66.126 Y89.144 E.18605
G1 X65.598 Y89.163 E.01699
G1 X69.681 Y93.246 E.18579
G1 X69.165 Y93.277 E.01664
G1 X65.071 Y89.183 E.1863
G1 X64.543 Y89.203 E.01699
G1 X68.656 Y93.316 E.18718
G1 X68.161 Y93.367 E.01604
G1 X64.523 Y89.73 E.16552
G1 X64.743 Y90.497 E.02567
G1 X67.65 Y93.404 E.13227
G1 X67.122 Y93.423 E.01699
G1 X64.963 Y91.264 E.09826
G1 X65.183 Y92.031 E.02567
G1 X66.594 Y93.443 E.06424
G1 X66.067 Y93.463 E.01699
G1 X65.155 Y92.551 E.04149
M204 P1000
; stop printing object A.stl id:1 copy 0
M106 S84.15
;LAYER_CHANGE
;Z:0.35
;HEIGHT:0.15
;BEFORE_LAYER_CHANGE
G92 E0.0
;0.35


G1 E-2.24 F4200
;WIPE_START
G1 F7200
G1 X66.067 Y93.463 E-.71449
G1 X66.423 Y93.449 E-.19751
;WIPE_END
G1 E-.048 F4200
G1 Z.4 F720
;AFTER_LAYER_CHANGE
;0.35
M104 S210 ; set temperature
G1 X66.55 Y97.35 F9000
G1 Z.35 F720
G1 E3.2 F2400
;TYPE:Skirt/Brim
;WIDTH:0.42
G1 F2000
G1 X64.56 Y97.415 E.04818
G1 X63.13 Y97.069 E.03557
G1 X61.812 Y95.385 E.05172
G1 X60.112 Y88.94 E.16119
G1 X60.146 Y87.47 E.03557
G1 X61.142 Y86.055 E.04184
G1 X62.056 Y85.589 E.02482
G1 X62.873 Y85.438 E.02008
G1 X76.647 Y84.969 E.33331
G1 X96.339 Y87.729 E.48092
G1 X96.99 Y87.902 E.0163
G1 X98.261 Y88.881 E.03879
G1 X98.688 Y89.702 E.02237
G1 X98.852 Y90.407 E.0175
G1 X98.875 Y91.836 E.03458
G1 X98.624 Y94.049 E.05385
G1 X98.022 Y95.391 E.03557
G1 X96.815 Y96.232 E.03557
G1 X95.991 Y96.386 E.02028
G1 X66.61 Y97.348 E.71095
G1 X66.598 Y96.971 F9000
G1 F2000
G1 X64.547 Y97.038 E.04963
G1 X63.228 Y96.689 E.033
G1 X62.176 Y95.286 E.04243
G1 X60.477 Y88.848 E.16103
G1 X60.538 Y87.485 E.033
G1 X61.366 Y86.358 E.03383
G1 X62.162 Y85.951 E.02161
G1 X62.887 Y85.815 E.01783
G1 X76.594 Y85.342 E.33171
G1 X96.287 Y88.102 E.48092
G1 X96.857 Y88.255 E.01428
G1 X97.954 Y89.1 E.03348
M73 P4 R16
G1 X98.367 Y89.934 E.0225
G1 X98.503 Y90.684 E.01844
G1 X98.518 Y91.411 E.01758
G1 X98.251 Y93.992 E.06276
G1 X97.667 Y95.225 E.033
G1 X95.979 Y96.009 E.04502
G1 X66.658 Y96.969 E.7095
; printing object A.stl id:0 copy 0
G1 E-2.24 F4200
;WIPE_START
G1 F7200
G1 X65.013 Y97.023 E-.912
;WIPE_END
G1 E-.048 F4200
G1 Z.55 F720
G1 X89.281 Y92.773 F9000
G1 Z.35 F720
G1 E3.2 F2400
M204 P800
;TYPE:Perimeter
;WIDTH:0.576189
G1 F1500
G1 X89.258 Y92.774 E.00078
;WIDTH:0.6255
G1 X88.092 Y92.848 E.04322
;WIDTH:0.626104
G1 X85.867 Y92.848 E.08241
G1 X85.855 Y92.567 E.01041
;TYPE:Overhang perimeter
G1 X85.847 Y92.254 E.01161
G1 X88.093 Y92.255 E.08316
;WIDTH:0.6255
G1 X89.235 Y92.231 E.04228
;WIDTH:0.576189
G1 X89.289 Y92.23 E.00183
;WIDTH:0.57462
G1 X90.467 Y92.222 E.03987
;WIDTH:0.556771
G1 X90.523 Y92.222 E.00183
;WIDTH:0.573871
G1 X91.702 Y92.231 E.03981
;WIDTH:0.575403
G1 X91.756 Y92.232 E.00182
;WIDTH:0.624009
G1 X92.898 Y92.257 E.04217
G1 X94.842 Y92.258 E.07173
;WIDTH:0.623404
G1 X95.144 Y92.258 E.01115
G1 X95.134 Y92.567 E.01139
;TYPE:Perimeter
G1 X95.124 Y92.849 E.01041
G1 X94.842 Y92.849 E.01042
;WIDTH:0.624009
G1 X92.898 Y92.849 E.07173
G1 X91.732 Y92.774 E.04311
;WIDTH:0.575403
G1 X91.694 Y92.773 E.00131
;WIDTH:0.573871
G1 X90.515 Y92.746 E.03981
;WIDTH:0.556771
G1 X90.475 Y92.746 E.00132
;WIDTH:0.57462
G1 X89.341 Y92.772 E.03837
M204 P1000
G1 X89.299 Y93.253 F9000
M204 P800
;TYPE:External perimeter
;WIDTH:0.449999
G1 F1500
G1 X88.127 Y93.354 E.03066
G1 X85.404 Y93.354 E.07095
G1 X85.353 Y92.758 E.01559
;TYPE:Overhang perimeter
G1 X85.34 Y92.211 E.01423
G1 X85.404 Y91.748 E.0122
G1 X95.587 Y91.754 E.26532
G1 X95.65 Y92.211 E.01202
G1 X95.637 Y92.758 E.01425
;TYPE:External perimeter
G1 X95.587 Y93.354 E.01559
G1 X92.864 Y93.354 E.07095
G1 X91.691 Y93.253 E.03066
G1 X90.501 Y93.217 E.03101
G1 X89.359 Y93.251 E.02977
M204 P1000
G1 X89.08 Y92.919 F9000
; stop printing object A.stl id:0 copy 0
; printing object A.stl id:1 copy 0
G1 E-2.24 F4200
;WIPE_START
G1 F7200
G1 X88.127 Y93.354 E-.68531
G1 X87.718 Y93.354 E-.22669
;WIPE_END
G1 E-.048 F4200
G1 Z.55 F720
G1 X72.196 Y93.7 F9000
G1 Z.35 F720
G1 E3.2 F2400
M204 P800
;TYPE:Perimeter
G1 F1500
G1 X71.028 Y93.645 E.03045
G1 X69.814 Y93.655 E.03165
G1 X68.638 Y93.734 E.0307
G1 X67.478 Y93.875 E.03045
G1 X65.063 Y93.965 E.06298
G1 X63.662 Y88.846 E.13828
G1 X75.629 Y88.407 E.31202
G1 X74.611 Y93.61 E.13813
G1 X72.256 Y93.698 E.06142
M204 P1000
G1 X71.043 Y94.063 F9000
M204 P800
;TYPE:External perimeter
G1 F1500
G1 X69.841 Y94.072 E.03131
G1 X68.666 Y94.151 E.0307
G1 X67.511 Y94.292 E.03031
G1 X64.747 Y94.395 E.07207
G1 X63.12 Y88.448 E.16065
G1 X76.14 Y87.97 E.33948
G1 X74.958 Y94.015 E.16049
G1 X72.194 Y94.118 E.07207
G1 X71.103 Y94.066 E.02845
M204 P1000
G1 X70.84 Y93.719 F9000
G1 E-2.24 F4200
;WIPE_START
G1 F7200
G1 X69.841 Y94.072 E-.69909
G1 X69.458 Y94.098 E-.21291
;WIPE_END
G1 E-.048 F4200
G1 Z.55 F720
G1 X74.721 Y92.395 F9000
G1 Z.35 F720
G1 E3.2 F2400
;TYPE:Solid infill
;WIDTH:0.464591
G1 F2000
G1 X73.789 Y93.327 E.03555
G1 X73.154 Y93.351 E.01714
G1 X74.632 Y91.873 E.05636
G1 X74.78 Y91.113 E.02089
G1 X72.519 Y93.374 E.08625
G1 X72.197 Y93.386 E.00868
G1 X71.909 Y93.373 E.00779
G1 X74.929 Y90.352 E.11518
G1 X75.078 Y89.592 E.02089
G1 X71.324 Y93.346 E.14313
G1 X70.724 Y93.334 E.01619
G1 X75.226 Y88.832 E.17169
G1 X75.245 Y88.735 E.00267
G1 X74.692 Y88.755 E.01494
G1 X70.108 Y93.339 E.17481
G1 X69.471 Y93.364 E.01719
G1 X74.057 Y88.778 E.1749
G1 X73.422 Y88.802 E.01713
G1 X68.816 Y93.408 E.17567
G1 X68.132 Y93.48 E.01853
G1 X72.788 Y88.825 E.17752
G1 X72.153 Y88.848 E.01713
G1 X67.438 Y93.563 E.1798
G1 X66.803 Y93.587 E.01714
G1 X71.518 Y88.871 E.17981
G1 X70.883 Y88.895 E.01713
G1 X66.168 Y93.61 E.17982
G1 X65.533 Y93.634 E.01714
G1 X70.248 Y88.918 E.17984
G1 X69.614 Y88.941 E.01713
G1 X65.216 Y93.339 E.1677
G1 X65.085 Y92.859 E.01342
M73 P5 R16
G1 X68.979 Y88.964 E.1485
G1 X68.344 Y88.988 E.01713
G1 X64.953 Y92.378 E.1293
G1 X64.822 Y91.898 E.01342
G1 X67.709 Y89.011 E.11011
G1 X67.075 Y89.034 E.01713
G1 X64.691 Y91.418 E.09091
G1 X64.559 Y90.938 E.01342
G1 X66.44 Y89.058 E.07171
G1 X65.805 Y89.081 E.01713
G1 X64.428 Y90.458 E.05251
G1 X64.297 Y89.978 E.01342
G1 X65.17 Y89.104 E.03332
G1 X64.535 Y89.127 E.01713
G1 X64.012 Y89.651 E.01995
; stop printing object A.stl id:1 copy 0
M106 S170.85
;LAYER_CHANGE
;Z:0.5
;HEIGHT:0.15
;BEFORE_LAYER_CHANGE
G92 E0.0
;0.5


G1 E-2.24 F4200
;WIPE_START
G1 F7200
G1 X64.535 Y89.127 E-.41008
G1 X65.17 Y89.104 E-.35201
G1 X64.979 Y89.295 E-.14991
;WIPE_END
G1 E-.048 F4200
G1 Z.55 F720
;AFTER_LAYER_CHANGE
;0.5
G1 X64.845 Y85.371 F9000
G1 Z.5 F720
G1 E3.2 F2400
;TYPE:Skirt/Brim
;WIDTH:0.42
G1 X76.647 Y84.969 E.28558
G1 X96.339 Y87.729 E.48092
G1 X96.99 Y87.902 E.0163
G1 X98.261 Y88.881 E.03879
G1 X98.688 Y89.702 E.02237
G1 X98.852 Y90.407 E.0175
G1 X98.875 Y91.836 E.03458
G1 X98.624 Y94.049 E.05385
G1 X98.022 Y95.391 E.03557
G1 X96.815 Y96.232 E.03557
G1 X95.991 Y96.386 E.02028
G1 X64.56 Y97.415 E.76057
G1 X63.13 Y97.069 E.03557
G1 X61.812 Y95.385 E.05172
G1 X60.112 Y88.94 E.16119
G1 X60.146 Y87.47 E.03557
G1 X61.142 Y86.055 E.04184
G1 X62.056 Y85.589 E.02482
G1 X62.873 Y85.438 E.02008
G1 X64.785 Y85.373 E.04628
G1 X64.798 Y85.749 F9000
G1 F2400
G1 X76.594 Y85.342 E.28545
G1 X96.287 Y88.102 E.48092
G1 X96.857 Y88.255 E.01428
G1 X97.954 Y89.1 E.03348
G1 X98.367 Y89.934 E.0225
G1 X98.503 Y90.684 E.01844
G1 X98.518 Y91.411 E.01758
G1 X98.251 Y93.992 E.06276
G1 X97.667 Y95.225 E.033
G1 X95.979 Y96.009 E.04502
G1 X64.547 Y97.038 E.76057
G1 X63.228 Y96.689 E.033
G1 X62.176 Y95.286 E.04243
G1 X60.477 Y88.848 E.16103
G1 X60.538 Y87.485 E.033
G1 X61.366 Y86.358 E.03383
G1 X62.162 Y85.951 E.02161
G1 X62.887 Y85.815 E.01783
G1 X64.738 Y85.751 E.04481
; printing object A.stl id:0 copy 0
G1 E-2.24 F4200
;WIPE_START
G1 F7200
G1 X66.383 Y85.694 E-.912
;WIPE_END
G1 E-.048 F4200
G1 Z.7 F720
G1 X85.653 Y92.991 F9000
G1 Z.5 F720
G1 E3.2 F2400
M204 P800
;TYPE:Perimeter
;WIDTH:0.449999
G1 F1500
G1 X85.553 Y92.117 E.02292
G1 X85.515 Y91.323 E.02072
;TYPE:Overhang perimeter
G1 X85.504 Y91.099 E.00583
G1 X95.5 Y91.107 E.26046
G1 X95.497 Y91.323 E.00562
;TYPE:Perimeter
G1 X95.416 Y92.387 E.02782
G1 X95.337 Y92.991 E.01586
G1 X93.21 Y92.991 E.05541
G1 X91.833 Y92.857 E.03606
G1 X90.514 Y92.816 E.03438
G1 X89.157 Y92.857 E.03537
G1 X87.78 Y92.991 E.03606
G1 X85.713 Y92.991 E.05385
M204 P1000
G1 X85.287 Y93.409 F9000
M204 P800
;TYPE:External perimeter
G1 F1500
G1 X85.137 Y92.148 E.03307
G1 X85.087 Y91.431 E.01874
;TYPE:Overhang perimeter
G1 X85.076 Y91.264 E.00435
G1 X85.126 Y90.681 E.01526
G1 X95.862 Y90.69 E.27973
G1 X95.918 Y91.089 E.01052
G1 X95.907 Y91.437 E.00906
;TYPE:External perimeter
G1 X95.832 Y92.43 E.02596
G1 X95.704 Y93.409 E.02571
G1 X93.19 Y93.409 E.06549
G1 X91.793 Y93.273 E.03659
G1 X90.502 Y93.233 E.03366
G1 X89.198 Y93.273 E.03398
G1 X87.8 Y93.409 E.03659
G1 X85.347 Y93.409 E.06393
M204 P1000
G1 X85.455 Y93.046 F9000
G1 E-2.24 F4200
;WIPE_START
G1 F7200
G1 X85.137 Y92.148 E-.70798
G1 X85.111 Y91.781 E-.20401
;WIPE_END
G1 E-.048 F4200
G1 Z.7 F720
G1 X95.365 Y91.414 F9000
G1 Z.5 F720
G1 E3.2 F2400
;TYPE:Bridge infill
;WIDTH:0.452866
G1 F1500
G1 X85.814 Y91.414 E.25054
G1 X85.846 Y91.835 E.01107
G1 X95.144 Y91.835 E.24392
G1 X95.112 Y92.255 E.01107
G1 X85.878 Y92.255 E.24225
G1 X85.928 Y92.676 E.01111
M73 P6 R16
G1 X95.252 Y92.676 E.24461
; stop printing object A.stl id:0 copy 0
; printing object A.stl id:1 copy 0
G1 E-2.24 F4200
;WIPE_START
G1 F7200
G1 X93.606 Y92.676 E-.912
;WIPE_END
G1 E-.048 F4200
G1 Z.7 F720
G1 X75.684 Y88.435 F9000
G1 Z.5 F720
G1 E3.2 F2400
M204 P800
;TYPE:Perimeter
;WIDTH:0.449999
G1 F1500
G1 X74.716 Y93.638 E.13791
G1 X72.516 Y93.72 E.05736
G1 X71.169 Y93.641 E.03517
G1 X69.813 Y93.65 E.03533
G1 X68.497 Y93.74 E.03436
G1 X67.16 Y93.919 E.03517
G1 X64.958 Y94.001 E.0574
G1 X63.604 Y88.88 E.13801
G1 X75.624 Y88.437 E.3134
M204 P1000
G1 X76.19 Y87.998 F9000
M204 P800
;TYPE:External perimeter
G1 F1500
G1 X75.066 Y94.043 E.16022
G1 X72.512 Y94.138 E.0666
G1 X71.145 Y94.058 E.03569
G1 X69.841 Y94.067 E.03396
G1 X68.553 Y94.154 E.03364
G1 X67.195 Y94.336 E.03569
G1 X64.641 Y94.431 E.06661
G1 X63.07 Y88.482 E.16032
G1 X76.13 Y88 E.34053
M204 P1000
G1 X76.007 Y88.353 F9000
G1 E-2.24 F4200
;WIPE_START
G1 F7200
G1 X75.845 Y89.621 E-.912
;WIPE_END
G1 E-.048 F4200
G1 Z.7 F720
G1 X74.695 Y88.597 F9000
G1 Z.5 F720
G1 E3.2 F2400
;TYPE:Solid infill
;WIDTH:0.463783
G1 F3045
G1 X75.235 Y89.137 E.02056
G1 X75.139 Y89.651 E.01409
G1 X74.287 Y88.8 E.03242
G1 X73.699 Y88.821 E.01585
