; generated by PrusaSlicer 2.5.0+win64 on 2022-10-10 at 04:37:09 UTC


;
;

;
;
; 

; external perimeters extrusion width = 0.45mm
; perimeters extrusion width = 0.45mm
; infill extrusion width = 0.45mm
; solid infill extrusion width = 0.45mm
; top infill extrusion width = 0.40mm
; first layer extrusion width = 0.42mm

M73 P0 R13
M201 X2500 Y2500 Z400 E5000 ; sets maximum accelerations, mm/sec^2
M203 X180 Y180 Z12 E80 ; sets maximum feedrates, mm / sec
M204 P1250 R1250 T2500 ; sets acceleration (P, T) and retract acceleration (R), mm/sec^2
M205 X8.00 Y8.00 Z2.00 E10.00 ; sets the jerk limits, mm/sec
M205 S0 T0 ; sets the minimum extruding and travel feed rate, mm/sec
M107
;TYPE:Custom
M862.3 P "MINI" ; printer model check
G90 ; use absolute coordinates
M83 ; extruder relative mode
M104 S170 ; set extruder temp for bed leveling
M140 S60 ; set bed temp
M109 R170 ; wait for bed leveling temp
M190 S60 ; wait for bed temp
M204 T1250 ; set travel acceleration
G28 ; home all without mesh bed level
G29 ; mesh bed leveling 
M204 T2500 ; restore travel acceleration
M104 S215 ; set extruder temp
G92 E0
G1 Y-2 X179 F2400
G1 Z3 F720
M109 S215 ; wait for extruder temp

; intro line
G1 X170 F1000
G1 Z0.2 F720
G1 X110 E8 F900
G1 X40 E10 F700
G92 E0

M221 S95 ; set flow
G21 ; set units to millimeters
G90 ; use absolute coordinates
M83 ; use relative distances for extrusion
M900 K0.2 ; Filament gcode LA 1.5
; ; Filament gcode LA 1.0
M107
;LAYER_CHANGE
;Z:0.2
;HEIGHT:0.2
;BEFORE_LAYER_CHANGE
G92 E0.0
;0.2


M73 P1 R13
G1 E-3.2 F4200
G1 Z.2 F720
;AFTER_LAYER_CHANGE
;0.2
G1 Z.4
G1 X81.802 Y86.474 F9000
G1 Z.2 F720
M73 P2 R13
G1 E3.2 F2400
M204 P800
;TYPE:Skirt/Brim
;WIDTH:0.42
G1 F1200
G1 X83.908 Y85.495 E.07279
G1 X84.223 Y85.489 E.0099
G1 X90.791 Y85.644 E.20598
G1 X92.299 Y86.082 E.04923
G1 X93.405 Y87.196 E.04923
G1 X93.767 Y88.145 E.03183
G1 X95.918 Y98.623 E.3354
G1 X95.838 Y100.191 E.04923
G1 X95.006 Y101.523 E.04923
G1 X94.167 Y102.094 E.03183
G1 X88.113 Y104.858 E.20864
G1 X86.565 Y105.118 E.04923
G1 X84.7 Y104.287 E.06402
G1 X83.899 Y103.156 E.04346
G1 X83.671 Y102.465 E.02282
G1 X80.997 Y89.437 E.41697
G1 X80.939 Y88.573 E.02717
G1 X81.046 Y87.85 E.02292
G1 X81.774 Y86.526 E.04735
M204 P1000
G1 X82.111 Y86.719 F9000
M204 P800
G1 F1200
G1 X82.142 Y86.666 E.00193
G1 X83.929 Y85.871 E.06131
G1 X90.78 Y86.021 E.21488
G1 X92.186 Y86.455 E.04612
G1 X93.398 Y88.22 E.06715
M73 P2 R12
G1 X95.548 Y98.699 E.3354
G1 X95.448 Y100.167 E.04612
G1 X94.008 Y101.751 E.06715
G1 X87.96 Y104.513 E.20848
G1 X86.505 Y104.733 E.04612
G1 X84.957 Y104.012 E.05354
G1 X84.241 Y102.997 E.03895
G1 X84.04 Y102.389 E.02008
G1 X81.367 Y89.362 E.41697
G1 X81.316 Y88.584 E.02442
G1 X81.412 Y87.943 E.02034
G1 X82.081 Y86.771 E.0423
M204 P1000
G1 X82.415 Y86.971 F9000
M204 P800
G1 F1200
G1 X82.479 Y86.865 E.00388
G1 X83.949 Y86.248 E.05001
G1 X84.212 Y86.243 E.00823
G1 X90.769 Y86.398 E.20565
G1 X92.064 Y86.828 E.04278
G1 X93.029 Y88.296 E.05509
G1 X95.179 Y98.775 E.33539
G1 X95.058 Y100.134 E.04278
G1 X93.85 Y101.409 E.05509
G1 X87.806 Y104.169 E.20832
G1 X86.453 Y104.344 E.04278
G1 X85.214 Y103.736 E.04326
G1 X84.583 Y102.838 E.03444
G1 X84.409 Y102.313 E.01732
G1 X81.736 Y89.286 E.41698
G1 X81.693 Y88.596 E.02167
M73 P3 R12
G1 X81.777 Y88.035 E.01777
G1 X82.384 Y87.023 E.03702
M204 P1000
; printing object A.stl id:0 copy 0
G1 E-2.24 F4200
;WIPE_START
G1 F7200
G1 X82.479 Y86.865 E-.10186
G1 X83.827 Y86.299 E-.81014
;WIPE_END
G1 E-.048 F4200
G1 Z.4 F720
G1 X85.503 Y90.024 F9000
G1 Z.2 F720
G1 E3.2 F2400
M204 P800
;TYPE:Perimeter
;WIDTH:0.419999
G1 F1200
G1 X89.748 Y90.192 E.13322
G1 X90.073 Y91.774 E.05065
G1 X90.205 Y92.443 E.02138
G1 X90.325 Y93.32 E.02775
G1 X90.504 Y94.297 E.03113
G1 X90.726 Y95.262 E.03107
G1 X90.983 Y96.21 E.03079
G1 X91.417 Y98.325 E.06768
G1 X87.581 Y100.151 E.13321
G1 X85.515 Y90.083 E.32225
M204 P1000
G1 X85.036 Y89.628 F9000
M204 P800
G1 F1200
G1 X90.058 Y89.827 E.15757
G1 X90.442 Y91.699 E.05991
G1 X90.579 Y92.392 E.02217
G1 X90.696 Y93.253 E.02723
G1 X90.871 Y94.212 E.03058
G1 X91.089 Y95.162 E.03055
G1 X91.352 Y96.134 E.03158
G1 X91.846 Y98.538 E.07694
G1 X87.308 Y100.698 E.15757
G1 X85.048 Y89.687 E.35244
M204 P1000
G1 X84.57 Y89.232 F9000
M204 P800
;TYPE:External perimeter
G1 F1200
G1 X90.368 Y89.462 E.18193
G1 X90.811 Y91.623 E.06917
G1 X90.952 Y92.341 E.02296
G1 X91.067 Y93.185 E.02671
G1 X91.239 Y94.128 E.03004
G1 X91.453 Y95.061 E.03002
G1 X91.722 Y96.058 E.03237
G1 X92.274 Y98.752 E.08621
G1 X87.035 Y101.245 E.18193
G1 X84.582 Y89.291 E.38263
M204 P1000
G1 X84.95 Y89.359 F9000
G1 E-2.24 F4200
;WIPE_START
G1 F7200
G1 X86.227 Y89.34 E-.912
;WIPE_END
G1 E-.048 F4200
G1 Z.4 F720
G1 X88.856 Y90.27 F9000
G1 Z.2 F720
G1 E3.2 F2400
M204 P800
;TYPE:Solid infill
;WIDTH:0.420656
G1 F1200
G1 X89.635 Y91.049 E.03462
G1 X89.773 Y91.721 E.02155
G1 X88.476 Y90.425 E.0576
G1 X87.92 Y90.403 E.01748
G1 X89.911 Y92.394 E.08843
G1 X89.998 Y93.015 E.01971
G1 X87.364 Y90.381 E.11701
G1 X86.808 Y90.359 E.01748
G1 X90.098 Y93.649 E.14613
G1 X90.216 Y94.301 E.02084
G1 X86.252 Y90.337 E.1761
G1 X85.852 Y90.321 E.01256
G1 X85.891 Y90.51 E.00607
G1 X90.373 Y94.992 E.19908
G1 X90.557 Y95.71 E.02328
G1 X86.029 Y91.182 E.20113
G1 X86.167 Y91.855 E.02155
M73 P4 R12
G1 X90.739 Y96.426 E.20307
G1 X90.877 Y97.098 E.02155
G1 X86.305 Y92.527 E.20307
G1 X86.443 Y93.199 E.02155
G1 X91.014 Y97.771 E.20307
G1 X91.095 Y98.164 E.01263
G1 X90.945 Y98.236 E.00521
G1 X86.581 Y93.871 E.19388
G1 X86.719 Y94.543 E.02155
G1 X90.584 Y98.408 E.17168
G1 X90.222 Y98.58 E.01259
G1 X86.856 Y95.215 E.14948
G1 X86.994 Y95.887 E.02155
G1 X89.86 Y98.753 E.12727
G1 X89.498 Y98.925 E.01259
G1 X87.132 Y96.559 E.10507
G1 X87.27 Y97.232 E.02155
G1 X89.136 Y99.097 E.08287
G1 X88.774 Y99.269 E.01259
G1 X87.408 Y97.904 E.06067
G1 X87.546 Y98.576 E.02155
G1 X88.412 Y99.442 E.03846
G1 X88.05 Y99.614 E.01259
G1 X87.466 Y99.03 E.02594
M204 P1000
; stop printing object A.stl id:0 copy 0
M106 S84.15
;LAYER_CHANGE
;Z:0.3
;HEIGHT:0.1
;BEFORE_LAYER_CHANGE
G92 E0.0
;0.3


G1 E-2.24 F4200
;WIPE_START
G1 F7200
G1 X88.05 Y99.614 E-.45771
G1 X88.412 Y99.442 E-.22213
G1 X88.116 Y99.145 E-.23217
;WIPE_END
G1 E-.048 F4200
G1 Z.4 F720
;AFTER_LAYER_CHANGE
;0.3
M104 S210 ; set temperature
G1 X83.197 Y100.155 F9000
G1 Z.3 F720
G1 E3.2 F2400
;TYPE:Skirt/Brim
;WIDTH:0.42
G1 F1487
G1 X80.997 Y89.437 E.18128
G1 X80.939 Y88.573 E.01436
G1 X81.046 Y87.85 E.01211
G1 X81.802 Y86.474 E.02601
G1 X83.908 Y85.495 E.03847
G1 X84.223 Y85.489 E.00523
G1 X90.791 Y85.644 E.10885
G1 X92.299 Y86.082 E.02601
G1 X93.405 Y87.196 E.02601
G1 X93.767 Y88.145 E.01682
G1 X95.918 Y98.623 E.17724
G1 X95.838 Y100.191 E.02601
G1 X95.006 Y101.523 E.02601
G1 X94.167 Y102.094 E.01682
G1 X88.113 Y104.858 E.11026
G1 X86.565 Y105.118 E.02601
G1 X84.7 Y104.287 E.03383
G1 X83.899 Y103.156 E.02297
G1 X83.671 Y102.465 E.01206
G1 X83.209 Y100.214 E.03807
G1 X83.578 Y100.138 F9000
G1 F1487
G1 X81.367 Y89.362 E.18228
G1 X81.316 Y88.584 E.01291
G1 X81.412 Y87.943 E.01075
G1 X82.142 Y86.666 E.02437
G1 X83.929 Y85.871 E.0324
G1 X90.78 Y86.021 E.11355
G1 X92.186 Y86.455 E.02437
G1 X93.398 Y88.22 E.03549
G1 X95.548 Y98.699 E.17724
G1 X95.448 Y100.167 E.02437
G1 X94.008 Y101.751 E.03549
G1 X87.96 Y104.513 E.11017
G1 X86.505 Y104.733 E.02437
G1 X84.957 Y104.012 E.0283
G1 X84.241 Y102.997 E.02058
G1 X84.04 Y102.389 E.01061
G1 X83.59 Y100.197 E.03708
M73 P5 R12
G1 X83.959 Y100.121 F9000
G1 F1487
G1 X81.736 Y89.286 E.18327
G1 X81.693 Y88.596 E.01145
G1 X81.777 Y88.035 E.00939
G1 X82.479 Y86.865 E.02261
G1 X83.949 Y86.248 E.02643
G1 X84.212 Y86.243 E.00435
G1 X90.769 Y86.398 E.10868
G1 X92.064 Y86.828 E.02261
G1 X93.029 Y88.296 E.02911
G1 X95.179 Y98.775 E.17724
G1 X95.058 Y100.134 E.02261
G1 X93.85 Y101.409 E.02911
G1 X87.806 Y104.169 E.11009
G1 X86.453 Y104.344 E.02261
G1 X85.214 Y103.736 E.02286
G1 X84.583 Y102.838 E.0182
G1 X84.409 Y102.313 E.00915
G1 X83.972 Y100.18 E.03609
; printing object A.stl id:0 copy 0
G1 E-2.24 F4200
;WIPE_START
G1 F7200
G1 X83.641 Y98.568 E-.912
;WIPE_END
G1 E-.048 F4200
G1 Z.5 F720
G1 X90.858 Y95.477 F9000
G1 Z.3 F720
G1 E3.2 F2400
M204 P600
;TYPE:Perimeter
;WIDTH:0.449999
G1 F1487
G1 X91.161 Y96.508 E.01914
G1 X91.58 Y98.553 E.0372
G1 X87.591 Y100.404 E.07835
G1 X85.404 Y89.785 E.19315
G1 X89.808 Y89.917 E.07851
G1 X90.239 Y92.052 E.03879
G1 X90.361 Y93.064 E.01817
G1 X90.565 Y94.229 E.02108
G1 X90.844 Y95.418 E.02176
M204 P1000
G1 X91.269 Y95.355 F9000
M204 P600
G1 F1487
G1 X91.577 Y96.404 E.01947
G1 X92.068 Y98.799 E.04356
G1 X87.28 Y101.02 E.09403
G1 X84.875 Y89.341 E.21245
G1 X90.16 Y89.499 E.09421
G1 X90.664 Y92.001 E.04547
G1 X90.783 Y92.99 E.01776
G1 X90.987 Y94.156 E.02108
G1 X91.255 Y95.297 E.02089
M204 P1000
G1 X91.684 Y95.246 F9000
M204 P600
;TYPE:External perimeter
G1 F1487
G1 X91.993 Y96.3 E.01958
G1 X92.556 Y99.045 E.04992
G1 X86.97 Y101.637 E.10972
G1 X84.346 Y88.9 E.23169
G1 X90.511 Y89.081 E.10989
G1 X91.09 Y91.95 E.05214
G1 X91.206 Y92.916 E.01735
G1 X91.409 Y94.082 E.02108
G1 X91.67 Y95.188 E.02024
M204 P1000
G1 X91.4 Y95.528 F9000
G1 E-2.24 F4200
;WIPE_START
G1 F7200
G1 X91.993 Y96.3 E-.64218
G1 X92.091 Y96.777 E-.26982
;WIPE_END
G1 E-.048 F4200
G1 Z.5 F720
G1 X89.737 Y99.267 F9000
G1 Z.3 F720
G1 E3.2 F2400
;TYPE:Solid infill
;WIDTH:0.467665
G1 F1487
G1 X91.116 Y97.888 E.03618
G1 X91.008 Y97.364 E.00992
G1 X88.956 Y99.416 E.05383
G1 X87.824 Y99.941 E.02316
G1 X87.82 Y99.921 E.00038
G1 X90.901 Y96.84 E.08083
G1 X90.775 Y96.335 E.00966
G1 X87.712 Y99.398 E.08037
G1 X87.604 Y98.875 E.00991
G1 X90.633 Y95.846 E.07945
G1 X90.498 Y95.351 E.00953
M73 P6 R12
G1 X87.496 Y98.352 E.07873
G1 X87.389 Y97.828 E.00991
G1 X90.377 Y94.84 E.0784
G1 X90.257 Y94.329 E.00973
G1 X87.281 Y97.305 E.07807
G1 X87.173 Y96.782 E.00991
G1 X90.163 Y93.792 E.07843
G1 X90.069 Y93.255 E.01011
G1 X87.065 Y96.259 E.07879
G1 X86.958 Y95.735 E.00991
G1 X89.994 Y92.699 E.07965
G1 X89.925 Y92.137 E.01052
G1 X86.85 Y95.212 E.08069
G1 X86.742 Y94.689 E.00991
G1 X89.826 Y91.605 E.08092
G1 X89.719 Y91.081 E.00992
G1 X86.634 Y94.166 E.08093
G1 X86.526 Y93.642 E.00991
G1 X89.611 Y90.557 E.08094
G1 X89.544 Y90.231 E.00618
G1 X89.314 Y90.224 E.00428
G1 X86.419 Y93.119 E.07596
G1 X86.311 Y92.596 E.00991
G1 X88.701 Y90.206 E.06271
G1 X88.088 Y90.187 E.01137
G1 X86.203 Y92.073 E.04947
G1 X86.095 Y91.55 E.00991
G1 X87.476 Y90.169 E.03622
G1 X86.863 Y90.151 E.01137
G1 X85.987 Y91.026 E.02297
G1 X85.88 Y90.503 E.00991
G1 X86.438 Y89.945 E.01464
; stop printing object A.stl id:0 copy 0
M106 S170.85
;LAYER_CHANGE
;Z:0.4
;HEIGHT:0.1
;BEFORE_LAYER_CHANGE
G92 E0.0
;0.4


G1 E-2.24 F4200
;WIPE_START
G1 F7200
G1 X85.88 Y90.503 E-.43738
G1 X85.987 Y91.026 E-.29605
G1 X86.215 Y90.798 E-.17857
;WIPE_END
G1 E-.048 F4200
G1 Z.5 F720
;AFTER_LAYER_CHANGE
;0.4
G1 X81.476 Y91.771 F9000
G1 Z.4 F720
G1 E3.2 F2400
;TYPE:Skirt/Brim
;WIDTH:0.42
G1 F1499
G1 X80.997 Y89.437 E.03947
G1 X80.939 Y88.573 E.01436
G1 X81.046 Y87.85 E.01211
G1 X81.802 Y86.474 E.02601
G1 X83.908 Y85.495 E.03847
G1 X84.223 Y85.489 E.00523
G1 X90.791 Y85.644 E.10885
G1 X92.299 Y86.082 E.02601
G1 X93.405 Y87.196 E.02601
G1 X93.767 Y88.145 E.01682
G1 X95.918 Y98.623 E.17724
G1 X95.838 Y100.191 E.02601
G1 X95.006 Y101.523 E.02601
G1 X94.167 Y102.094 E.01682
G1 X88.113 Y104.858 E.11026
G1 X86.565 Y105.118 E.02601
G1 X84.7 Y104.287 E.03383
G1 X83.899 Y103.156 E.02297
G1 X83.671 Y102.465 E.01206
G1 X81.488 Y91.83 E.17989
G1 X81.858 Y91.754 F9000
G1 F1499
G1 X81.367 Y89.362 E.04047
G1 X81.316 Y88.584 E.01291
G1 X81.412 Y87.943 E.01075
G1 X82.142 Y86.666 E.02437
G1 X83.929 Y85.871 E.0324
G1 X90.78 Y86.021 E.11355
G1 X92.186 Y86.455 E.02437
G1 X93.398 Y88.22 E.03549
G1 X95.548 Y98.699 E.17724
G1 X95.448 Y100.167 E.02437
G1 X94.008 Y101.751 E.03549
G1 X87.96 Y104.513 E.11017
G1 X86.505 Y104.733 E.02437
G1 X84.957 Y104.012 E.0283
G1 X84.241 Y102.997 E.02058
G1 X84.04 Y102.389 E.01061
G1 X81.87 Y91.813 E.17889
G1 X82.239 Y91.737 F9000
M73 P7 R12
G1 F1499
G1 X81.736 Y89.286 E.04146
G1 X81.693 Y88.596 E.01145
G1 X81.777 Y88.035 E.00939
G1 X82.479 Y86.865 E.02261
G1 X83.949 Y86.248 E.02643
G1 X84.212 Y86.243 E.00435
G1 X90.769 Y86.398 E.10868
G1 X92.064 Y86.828 E.02261
G1 X93.029 Y88.296 E.02911
G1 X95.179 Y98.775 E.17724
G1 X95.058 Y100.134 E.02261
G1 X93.85 Y101.409 E.02911
G1 X87.806 Y104.169 E.11009
G1 X86.453 Y104.344 E.02261
G1 X85.214 Y103.736 E.02286
G1 X84.583 Y102.838 E.0182
G1 X84.409 Y102.313 E.00915
G1 X82.251 Y91.796 E.1779
; printing object A.stl id:0 copy 0
G1 E-2.24 F4200
;WIPE_START
G1 F7200
G1 X81.92 Y90.184 E-.912
;WIPE_END
G1 E-.048 F4200
G1 Z.6 F720
G1 X85.414 Y89.734 F9000
G1 Z.4 F720
G1 E3.2 F2400
M204 P600
;TYPE:Perimeter
;WIDTH:0.449999
G1 F1499
G1 X89.813 Y89.836 E.07841
G1 X90.204 Y91.738 E.03458
G1 X90.35 Y93.024 E.02306
G1 X90.573 Y94.291 E.02292
G1 X90.838 Y95.422 E.0207
G1 X91.246 Y96.818 E.02591
G1 X91.617 Y98.626 E.03288
G1 X87.613 Y100.452 E.0784
G1 X85.426 Y89.793 E.19387
M204 P1000
G1 X84.886 Y89.293 F9000
M204 P600
G1 F1499
G1 X90.165 Y89.416 E.09407
G1 X90.627 Y91.67 E.041
G1 X90.776 Y92.975 E.0234
G1 X90.983 Y94.157 E.02139
G1 X91.256 Y95.324 E.02134
G1 X91.666 Y96.732 E.02613
G1 X92.106 Y98.874 E.03896
G1 X87.302 Y101.065 E.09407
G1 X84.898 Y89.352 E.21304
M204 P1000
G1 X84.358 Y88.852 F9000
M204 P600
;TYPE:External perimeter
G1 F1499
G1 X90.516 Y88.995 E.10974
G1 X91.051 Y91.603 E.04742
G1 X91.202 Y92.926 E.02374
G1 X91.405 Y94.083 E.02092
G1 X91.673 Y95.226 E.02091
G1 X92.086 Y96.645 E.02634
G1 X92.594 Y99.122 E.04505
G1 X86.99 Y101.678 E.10973
G1 X84.37 Y88.911 E.23221
M204 P1000
G1 X84.738 Y88.975 F9000
G1 E-2.24 F4200
;WIPE_START
G1 F7200
G1 X86.016 Y88.933 E-.912
;WIPE_END
G1 E-.048 F4200
G1 Z.6 F720
G1 X88.796 Y89.941 F9000
G1 Z.4 F720
G1 E3.2 F2400
;TYPE:Solid infill
;WIDTH:0.459523
G1 F1499
G1 X89.69 Y90.835 E.02303
G1 X89.85 Y91.615 E.01449
G1 X88.359 Y90.124 E.0384
G1 X87.725 Y90.109 E.01155
G1 X89.948 Y92.332 E.05725
G1 X90.028 Y93.031 E.01282
G1 X87.091 Y90.094 E.07564
G1 X86.456 Y90.08 E.01155
G1 X90.156 Y93.779 E.09529
G1 X90.304 Y94.546 E.01423
G1 X85.81 Y90.064 E.11559
G1 X85.967 Y90.829 E.01421
M73 P8 R12
G1 X90.495 Y95.357 E.11664
G1 X90.741 Y96.223 E.01638
G1 X86.127 Y91.608 E.11885
G1 X86.287 Y92.388 E.01449
G1 X90.97 Y97.071 E.12063
G1 X91.13 Y97.851 E.01449
G1 X86.447 Y93.167 E.12063
G1 X86.607 Y93.947 E.01449
G1 X91.147 Y98.487 E.11694
G1 X90.721 Y98.681 E.00852
G1 X86.767 Y94.726 E.10186
G1 X86.927 Y95.506 E.01449
G1 X90.296 Y98.875 E.08678
G1 X89.87 Y99.069 E.00852
G1 X87.086 Y96.285 E.0717
G1 X87.246 Y97.065 E.01449
G1 X89.445 Y99.263 E.05662
G1 X89.019 Y99.457 E.00852
G1 X87.406 Y97.844 E.04155
G1 X87.566 Y98.624 E.01449
G1 X88.594 Y99.651 E.02647
G1 X88.169 Y99.845 E.00852
G1 X87.479 Y99.155 E.01777
; stop printing object A.stl id:0 copy 0
M106 S255
;LAYER_CHANGE
;Z:0.5
;HEIGHT:0.1
;BEFORE_LAYER_CHANGE
G92 E0.0
;0.5


G1 E-2.24 F4200
;WIPE_START
G1 F7200
G1 X88.169 Y99.845 E-.54067
G1 X88.594 Y99.651 E-.25914
G1 X88.451 Y99.508 E-.11219
;WIPE_END
G1 E-.048 F4200
G1 Z.6 F720
;AFTER_LAYER_CHANGE
;0.5
; printing object A.stl id:0 copy 0
G1 X87.641 Y100.481 F9000
G1 Z.5 F720
G1 E3.2 F2400
M204 P600
;TYPE:Perimeter
;WIDTH:0.449999
G1 F900
G1 X85.429 Y89.703 E.19604
G1 X89.823 Y89.777 E.0783
G1 X90.183 Y91.531 E.03189
G1 X90.327 Y92.894 E.02443
G1 X90.557 Y94.228 E.02412
G1 X90.885 Y95.612 E.02534
G1 X91.31 Y97.025 E.02628
G1 X91.65 Y98.679 E.03009
G1 X87.696 Y100.457 E.07724
M204 P1000
G1 X87.328 Y101.088 F9000
M204 P600
G1 F900
G1 X84.902 Y89.265 E.21504
G1 X90.174 Y89.355 E.09394
G1 X90.607 Y91.466 E.03839
G1 X90.75 Y92.822 E.02429
G1 X90.979 Y94.156 E.02412
G1 X91.302 Y95.513 E.02485
G1 X91.73 Y96.939 E.02653
G1 X92.139 Y98.928 E.03619
G1 X87.383 Y101.064 E.09288
M204 P1000
G1 X87.015 Y101.696 F9000
M204 P600
;TYPE:External perimeter
G1 F900
G1 X84.375 Y88.827 E.23404
G1 X90.525 Y88.932 E.10959
M73 P9 R12
G1 X91.031 Y91.4 E.04489
G1 X91.172 Y92.749 E.02416
G1 X91.402 Y94.083 E.02412
G1 X91.719 Y95.413 E.02437
G1 X92.15 Y96.852 E.02677
G1 X92.627 Y99.177 E.04228
G1 X89.42 Y100.631 E.06273
G1 X87.07 Y101.671 E.04578
M204 P1000
